X: 287
T: Down at the Seaside
B: O'Neill's 287
N: "Graceful"
N: "Collected by F.O'Neill"
Z: 1997 by John Chambers <jc@trillian.mit.edu>
M: C
L: 1/8
K:D
DE \
| F>EFA BAFD | A^GAB A2(dc) | B3c dec>B | B4 z2(DE) |
| F>E F(G/A/) GFED | A>F AB/c/ d3c | B>cde Tf2e>d | d6 ||
|| (cd) \
| edef g2(cd) | e(d/c/) dB A2 (Bc) | d>cde dcBA | B4 z2(dB) |
| (AF)(ED) D2(FG) | (A>F)(ED) d2(fe) | (d>c) ((3Bcd) (A>F) (E>D) | D6 ||


